X:65
T: Road to Abbeyfeale
C: M.Mulvihill
Z: B.Black
R: jig
M: 6/8
L: 1/8
K: G
B/c/ | d^cd gdB | cAG FGA | d^cd gdB | cAB c2 c |
d^cd gdB | cAG FGA | def gdB | cAF G2 :|
B/c/ | dgg dgg | fdc ABc | dgg dgg | fdB c2 c |
dgg dgg | fdc ABc | d^cd gdB | cAF G2 :|
